X:0504
T:Cuddy Clawd her.
M:6/8
L:1/8
Q:3/8=100
N:Aird prints last note as e2
N:Aird uses one sharp
I: :: ::
Z:Jack Campin * www.campin.me.uk * 2009
K:E Dorian
E/F/|:G>AB    BAG|F(.d.d)   {G}F2D   |(G/F/G/A/).B BAG|F(.e.e)    G2E |
      G(.e.e) G2E|Fd(3(B/A/G/) F2c/d/| e>d^c       BGE|Gee        G2E::
      e>fe    efg|f>ed/e/      d2b/a/| gfe        ^dBd|e3/f/e/^d/ eba |
      gfe     efg|fed          dba   | gfe        ^dBd|e3/f/e/^d/ e3 :|
<end>
<start>
